icons/repeat.svg

<svg width="24" height="24" viewBox="0 0 24 24" fill="none" xmlns="http://www.w3.org/2000/svg">
<path fill-rule="evenodd" clip-rule="evenodd" d="M5.47186 2.11833C5.79702 2.29235 6 2.63121 6 3V4H21C21.5523 4 22 4.44772 22 5V11C22 11.5523 21.5523 12 21 12C20.4477 12 20 11.5523 20 11V6H6V7C6 7.3688 5.79702 7.70766 5.47186 7.88168C5.1467 8.0557 4.75216 8.03662 4.4453 7.83205L1.4453 5.83205C1.1671 5.64659 1 5.33435 1 5C1 4.66565 1.1671 4.35342 1.4453 4.16795L4.4453 2.16795C4.75216 1.96338 5.1467 1.94431 5.47186 2.11833ZM3 12C3.55228 12 4 12.4477 4 13V18H18V17C18 16.6312 18.203 16.2923 18.5281 16.1183C18.8533 15.9443 19.2478 15.9634 19.5547 16.168L22.5547 18.168C22.8329 18.3534 23 18.6656 23 19C23 19.3344 22.8329 19.6466 22.5547 19.8321L19.5547 21.8321C19.2478 22.0366 18.8533 22.0557 18.5281 21.8817C18.203 21.7077 18 21.3688 18 21V20H3C2.44772 20 2 19.5523 2 19V13C2 12.4477 2.44772 12 3 12Z" fill="black"/>
</svg>

<svg
  width="24"
  height="24"
  viewBox="0 0 24 24"
  xmlns="http://www.w3.org/2000/svg"
>
  <path
    fill-rule="evenodd"
    clip-rule="evenodd"
    d="M5.472 2.118A1 1 0 0 1 6 3v1h15a1 1 0 0 1 1 1v6a1 1 0 1 1-2 0V6H6v1a1 1 0 0 1-1.555.832l-3-2a1 1 0 0 1 0-1.664l3-2a1 1 0 0 1 1.027-.05zM3 12a1 1 0 0 1 1 1v5h14v-1a1 1 0 0 1 1.555-.832l3 2a1 1 0 0 1 0 1.664l-3 2A1 1 0 0 1 18 21v-1H3a1 1 0 0 1-1-1v-6a1 1 0 0 1 1-1z"
  />
</svg>
